brandFactory_export/2.Regular/ADN_2Regular.svg

<?xml version="1.0" encoding="UTF-8"?>
<svg width="24px" height="24px" viewBox="0 0 24 24" version="1.1" xmlns="http://www.w3.org/2000/svg" xmlns:xlink="http://www.w3.org/1999/xlink">
    <title>2.Regular/ADN_2Regular</title>
    <g id="Symbols" stroke="none" stroke-width="1" fill="none" fill-rule="evenodd">
        <g id="2.Regular/ADN_2Regular" fill="#5CB615" fill-rule="nonzero">
            <path d="M13.8672269,15.5596639 C13.4235294,15.8655462 12.9462185,16.1647059 12.4420168,16.4672269 C11.9411765,16.1647059 11.4605042,15.8655462 11.0201681,15.5596639 L13.8672269,15.5596639 Z M9.35294118,14.0672269 C9.01344538,13.6268908 8.77478992,13.1361345 8.6605042,12.5747899 L16.2268908,12.5747899 C16.112605,13.1361345 15.8705882,13.6235294 15.5344538,14.0672269 L9.35294118,14.0672269 Z M10.9731092,8.09747899 C11.4302521,7.78151261 11.9210084,7.46890756 12.4420168,7.15630252 C12.9630252,7.46890756 13.4571429,7.77815126 13.9142857,8.09747899 L10.9731092,8.09747899 Z M15.5613445,9.58991597 C15.8941176,10.0302521 16.1193277,10.5243697 16.2302521,11.0823529 L8.65714286,11.0823529 C8.76806723,10.5243697 8.99327731,10.0302521 9.32605042,9.58991597 L15.5613445,9.58991597 Z M17.8571429,11.8117647 C17.8571429,9.09579832 15.9210084,7.54621849 13.8941176,6.2789916 C15.9210084,5.01176471 17.8571429,3.46218487 17.8571429,0.746218487 C17.8571429,0.336134454 17.5109244,0 17.0840336,0 C16.6571429,0 16.3109244,0.332773109 16.3109244,0.746218487 C16.3109244,2.95462185 14.5596639,4.13445378 12.4453782,5.39831933 C10.3310924,4.13109244 8.57983193,2.95462185 8.57983193,0.746218487 C8.57983193,0.336134454 8.23361345,0 7.80672269,0 C7.37983193,0 7.03361345,0.332773109 7.03361345,0.746218487 C7.03361345,3.46218487 8.9697479,5.01176471 10.9966387,6.2789916 C8.9697479,7.54621849 7.03361345,9.09915966 7.03361345,11.8117647 C7.03361345,13.210084 7.54789916,14.2957983 8.31764706,15.1966387 C8.36470588,15.2705882 8.42521008,15.3344538 8.49579832,15.3882353 C9.20168067,16.1478992 10.0857143,16.7764706 10.9932773,17.3411765 C8.96638655,18.6084034 7.0302521,20.1579832 7.0302521,22.8739496 C7.0302521,23.2840336 7.37647059,23.6201681 7.80336134,23.6201681 C8.2302521,23.6201681 8.57647059,23.287395 8.57647059,22.8739496 C8.57647059,20.6655462 10.3310924,19.4890756 12.4420168,18.2218487 C14.5563025,19.4890756 16.307563,20.6689076 16.307563,22.8739496 C16.307563,23.2840336 16.6537815,23.6201681 17.0806723,23.6201681 C17.507563,23.6201681 17.8537815,23.287395 17.8537815,22.8739496 C17.8537815,20.1579832 15.9176471,18.6084034 13.8907563,17.3411765 C15.9210084,16.0773109 17.8571429,14.5277311 17.8571429,11.8117647 Z" id="ADN_2Regular"></path>
        </g>
    </g>
</svg>

<svg width="24" height="24" viewBox="0 0 24 24" xmlns="http://www.w3.org/2000/svg"><path d="M13.867 15.56c-.443.306-.92.605-1.425.907-.5-.302-.981-.601-1.422-.907h2.847zm-4.514-1.493a3.583 3.583 0 01-.692-1.492h7.566a3.645 3.645 0 01-.693 1.492H9.353zm1.62-5.97c.457-.315.948-.628 1.469-.94a25.4 25.4 0 011.472.94h-2.94zm4.588 1.493c.333.44.558.934.67 1.492H8.656c.111-.558.336-1.052.67-1.492h6.234zm2.296 2.222c0-2.716-1.936-4.266-3.963-5.533 2.027-1.267 3.963-2.817 3.963-5.533A.761.761 0 0017.084 0a.76.76 0 00-.773.746c0 2.209-1.751 3.388-3.866 4.652C10.331 4.131 8.58 2.955 8.58.746A.761.761 0 007.807 0a.76.76 0 00-.773.746c0 2.716 1.936 4.266 3.963 5.533-2.027 1.267-3.963 2.82-3.963 5.533 0 1.398.514 2.484 1.284 3.385a.743.743 0 00.178.191c.706.76 1.59 1.388 2.497 1.953-2.027 1.267-3.963 2.817-3.963 5.533 0 .41.346.746.773.746a.76.76 0 00.773-.746c0-2.208 1.755-3.385 3.866-4.652 2.114 1.267 3.866 2.447 3.866 4.652 0 .41.346.746.773.746a.76.76 0 00.773-.746c0-2.716-1.936-4.266-3.963-5.533 2.03-1.264 3.966-2.813 3.966-5.53z" fill="#5CB615" fill-rule="nonzero"/></svg>
